svg/table_column_remove.svg

<svg xmlns="http://www.w3.org/2000/svg" viewBox="0 0 24 24"><path d="M4 2h7a2 2 0 0 1 2 2v16a2 2 0 0 1-2 2H4a2 2 0 0 1-2-2V4a2 2 0 0 1 2-2m0 8v4h7v-4zm0 6v4h7v-4zM4 4v4h7V4zm13.59 8L15 9.41 16.41 8 19 10.59 21.59 8 23 9.41 20.41 12 23 14.59 21.59 16 19 13.41 16.41 16 15 14.59z"/></svg>

<?xml version="1.0" encoding="UTF-8"?><!DOCTYPE svg PUBLIC "-//W3C//DTD SVG 1.1//EN" "http://www.w3.org/Graphics/SVG/1.1/DTD/svg11.dtd"><svg xmlns="http://www.w3.org/2000/svg" xmlns:xlink="http://www.w3.org/1999/xlink" version="1.1" id="mdi-table-column-remove" width="24" height="24" viewBox="0 0 24 24"><path d="M4,2H11A2,2 0 0,1 13,4V20A2,2 0 0,1 11,22H4A2,2 0 0,1 2,20V4A2,2 0 0,1 4,2M4,10V14H11V10H4M4,16V20H11V16H4M4,4V8H11V4H4M17.59,12L15,9.41L16.41,8L19,10.59L21.59,8L23,9.41L20.41,12L23,14.59L21.59,16L19,13.41L16.41,16L15,14.59L17.59,12Z" /></svg>
